images/github-icon.svg

<svg width="1024" height="999" viewBox="0 0 1024 999" xmlns="http://www.w3.org/2000/svg"><title>github-icon</title><g fill="none" fill-rule="evenodd"><g fill="#000"><path d="M512 0C229.25 0 0 229.25 0 512c0 226.25 146.688 418.125 350.156 485.812 25.594 4.688 34.938-11.125 34.938-24.625 0-12.188-.47-52.562-.72-95.312C242 908.812 211.907 817.5 211.907 817.5c-23.312-59.125-56.844-74.875-56.844-74.875-46.53-31.75 3.53-31.125 3.53-31.125 51.406 3.562 78.47 52.75 78.47 52.75 45.688 78.25 119.875 55.625 149 42.5 4.654-33 17.904-55.625 32.5-68.375-113.656-12.937-233.218-56.875-233.218-253.063 0-55.938 19.97-101.562 52.656-137.406-5.22-13-22.844-65.094 5.062-135.562 0 0 42.938-13.75 140.812 52.5 40.812-11.406 84.594-17.03 128.125-17.22 43.5.19 87.31 5.876 128.187 17.282 97.688-66.312 140.688-52.5 140.688-52.5 28 70.53 10.375 122.562 5.125 135.5 32.812 35.844 52.625 81.47 52.625 137.406 0 196.688-119.75 240-233.812 252.688 18.438 15.875 34.75 47 34.75 94.75 0 68.438-.688 123.625-.688 140.5 0 13.625 9.312 29.562 35.25 24.562C877.438 930 1024 738.125 1024 512 1024 229.25 794.75 0 512 0z"/></g></g></svg>

<?xml version="1.0" encoding="UTF-8" standalone="no"?>
<svg width="1024px" height="999px" viewBox="0 0 1024 999" version="1.1" xmlns="http://www.w3.org/2000/svg" xmlns:xlink="http://www.w3.org/1999/xlink" xmlns:sketch="http://www.bohemiancoding.com/sketch/ns">
    <!-- Generator: Sketch 3.0.3 (7892) - http://www.bohemiancoding.com/sketch -->
    <title>github-icon</title>
    <desc>Created with Sketch.</desc>
    <defs></defs>
    <g id="Page-1" stroke="none" stroke-width="1" fill="none" fill-rule="evenodd" sketch:type="MSPage">
        <g id="github-icon" sketch:type="MSLayerGroup" fill="#000000">
            <path d="M512,0 C229.25,0 0,229.25 0,512 C0,738.25 146.688,930.125 350.156,997.812 C375.75,1002.5 385.094,986.687 385.094,973.187 C385.094,960.999 384.625,920.625 384.375,877.875 C242,908.812 211.906,817.5 211.906,817.5 C188.594,758.375 155.062,742.625 155.062,742.625 C108.531,710.875 158.592,711.5 158.592,711.5 C209.998,715.062 237.062,764.25 237.062,764.25 C282.75,842.5 356.937,819.875 386.062,806.75 C390.716,773.75 403.966,751.125 418.562,738.375 C304.906,725.438 185.344,681.5 185.344,485.312 C185.344,429.374 205.313,383.75 238,347.906 C232.781,334.906 215.156,282.812 243.062,212.344 C243.062,212.344 286,198.594 383.874,264.844 C424.686,253.438 468.468,247.813 511.999,247.625 C555.499,247.813 599.311,253.5 640.187,264.906 C737.875,198.594 780.875,212.406 780.875,212.406 C808.875,282.937 791.25,334.968 786,347.906 C818.812,383.75 838.625,429.375 838.625,485.312 C838.625,682 718.875,725.312 604.813,738 C623.251,753.875 639.563,785 639.563,832.75 C639.563,901.188 638.875,956.375 638.875,973.25 C638.875,986.875 648.187,1002.812 674.125,997.812 C877.438,930 1024,738.125 1024,512 C1024,229.25 794.75,0 512,0 L512,0 Z" id="Shape" sketch:type="MSShapeGroup"></path>
        </g>
    </g>
</svg>
